X:37
  T:Bonaparte's Retreat
R:Reel
M:C
L:1/8
N:from Songs from the Mountain, SUGA-CD3952
N:Transcribed by Bruce Thomson
K:D
|z6(3ABc|:"D"d3dd2(3ABc|d2c2B2A2|"G"B3B
BABc|d2c2B2A2|"D"d3dd2fe|
d2dBA2F2|"A"EFDE
FDEF|&#91;1D6d2:|&#91;2D6EF|:"D"F2F2AFDG|F2F2AFDG|
"A"E2EF GFED|E2EF GFED|"D"F2F2AFDG|F2FG
AFED|"A"EFDE FDEF|"D"D8:|
